X: 17437
T: Highland Laddie, The
R: jig
M: 6/8
K: Dmajor
D|D>ED F>GF|A>BA {de}f2 d|dBF G>AB|A>GF FED|
D>ED A>BA|d>ed {fg}a2 f|fdA B>cd|A>BA F D2||
F2G Ad2|f>ed eAA|FAf {f}e2d|c2d eAA|
F2 d {d}c2B|A2 {ef}g f2 e|f>ed B>cd|A>BA F D2||

